icons/git/repo.svg

<svg width="32" height="32" viewBox="0 0 32 32" fill="none" xmlns="http://www.w3.org/2000/svg">
<path fill-rule="evenodd" clip-rule="evenodd" d="M9 2.00002C6.23858 2.00002 4 4.23859 4 7.00002V25C4 27.4189 5.71768 29.4366 7.99984 29.9V27.8293C6.83473 27.4174 6 26.3062 6 25C6 23.3432 7.34315 22 9 22H24V28H18.9998V30H24C25.1046 30 26 29.1046 26 28V4.00002C26 2.89544 25.1046 2.00002 24 2.00002H9ZM6 20.9996V7.00002C6 5.34316 7.34315 4.00002 9 4.00002H24V20H9C7.87439 20 6.83566 20.372 6 20.9996ZM16.9999 32L13.4999 30L9.99992 32V24H16.9999V32Z" fill="black"/>
</svg>

<svg viewBox="0 0 32 32" xmlns="http://www.w3.org/2000/svg"><path fill-rule="evenodd" d="M9 2a5 5 0 00-5 5v18a5.002 5.002 0 004 4.9v-2.07A3.001 3.001 0 019 22h15v6h-5v2h5a2 2 0 002-2V4a2 2 0 00-2-2H9zM6 21V7a3 3 0 013-3h15v16H9a4.978 4.978 0 00-3 1zm11 11l-3.5-2-3.5 2v-8h7v8z"/></svg>
